build/Karasa-Jaga/scalable/apps/system-users-symbolic.svg

<svg height="16" width="16" xmlns="http://www.w3.org/2000/svg"><g fill="#bebebe"><path d="m5.6347656 4.4492188c-.8919432 0-1.5950272.3419466-1.9472656.6601562-.3904491.3522397-.6796875.7574144-.6796875 1.515625 0 .5379117.0449219.8549599.0449219 1.0507812 0 .2191049-.2092993.2435047-.2558594.4882813-.0662693.3432844.0457096 1.1245794.2558594 1.515625.1295528.2394035.4034123.3450235.5878906.5605465.1886572.219702.3828125.672306.3828125.964844 0 .438807-.4898245 1.363511-1.5644531 1.898438-1.47164611.733733-2.19531252 1.070302-2.19531252 2.091796h10.74609412c0-1.021494-.723668-1.358063-2.1953129-2.091796-1.0740321-.535525-1.5683593-1.460228-1.5683593-1.898438-.0000001-.292537.1947527-.745142.3828124-.964844.1832841-.215523.4583382-.321143.5878907-.5605465.2107452-.3910457.3240805-1.1723407.2578125-1.515625-.0465672-.2441797-.2578125-.2685791-.2578125-.4882813 0-.1958211.0449219-.5134666.0449219-1.0507812 0-.7582107-.2802655-1.1991798-.5859376-1.4433594-.2268657-.1814927-.4934267-.2196636-.6582031-.2441406-.00117-.00179-.0033096-.0027063-.0039062-.0039062l-.0292969-.0390626-.0058594.0019532c-.1325377-.142687-.394384-.3256015-.78125-.3984375-.1689565-.032239-.3738438-.0488281-.5625-.0488281zm1.3496094.4453124.0371094-.0234374c.0704483-.0400001.1590827-.0585938.2695312-.0585938v-.1386719c-.093135 0-.1744557.0120344-.2460937.0371094-.0185044-.076418-.0571593-.151288-.1132813-.21875l-.1054687.0878906c.060892.072836.09375.1554059.09375.2324219zm-.8339844.46875c.0001336.0002698.1498328.2048111.1835938.25.0013.00131.0025962.0026063.0039062.0039063.2575462.2293838.6179484.3038471.9453125.1953125l-.3085937.1015625c.028541.00843.1023362.0252344.0976562.0214844h.0019532c.0878217.0701545.2226562.1689732.2226562.6894531 0 .4835452-.0449219.707422-.0449219 1.0507812 0 .3164991.1630713.5089815.2753907.6699219v.0019531c-.012083-.0625917.0053741.1877723-.0292969.4023438-.0346716.2145715-.1185192.4497586-.1308594.4726562.0829183-.155158-.0850574-.0619262-.4707031.390625l-.0019532.0019532c-.39859.4661096-.6132814.8702106-.6132812 1.5898436 0 .581856.2206926 1.009253.5664062 1.482422.3457138.473169.8545507.938965 1.5371094 1.279297.2389459.119134.2839155.164952.4726563.263672h-6.4414063c.1887409-.098716.2337103-.144538.4726563-.263672.6834912-.340227 1.190325-.807357 1.5351562-1.28125.3448313-.473893.5644531-.902108.5644531-1.480469 0-.718618-.2139155-1.124103-.6152343-1.5917968-.3881891-.4535149-.5528351-.5443148-.4707031-.390625-.0120779-.0224744-.0945293-.2560392-.1289063-.4707031s-.0174459-.4656879-.0292969-.4042969c.0000026-.0013.0000026-.0026062 0-.0039062.1111613-.160263.2734375-.3526472.2734375-.6679688 0-.3433592-.0449219-.5665792-.0449219-1.0507812 0-.5128687.0681411-.5343297.3613282-.7988281.1334935-.1205971.6554004-.4121094 1.3007812-.4121094.132103 0 .2930984.014504.3808594.03125.0013.0000026.0026063.0000026.0039062 0 .1760453.0331449.2708212.1277349.2519532.1074219l-.0292969-.0410156c.016642.0222329.0342374.0437381.0527344.0644531.006511.00651.0325525.0312493.0390625.0371093-.0249303-.0299913-.0987613-.1193507-.1132813-.1367187z" stroke-width="1.057703"/><path d="m11.142578.8046875c-1.5388814.12824007-1.9431193 1.1586638-2.1152342 2.578125l-.2636719.5957031a1.6497243 1.6497243 0 0 1 .0644531.0996094c.6009019.571538 1.0917969 1.4661382 1.0917969 2.5449219 0 .5469887-.0500753.796173-.0664063.859375.0909472.1661423.1885264.1765572.2304684.3964843.110791.5739253.03847.8826761-.03125 1.2890626-.069719.4063864-.1452648.8193079-.3984371 1.2890622-.0141.02606-.017516.042166-.03125.066407l.9902341.130859 3.4375-.197266 1.158203-.4628904.527344-.3300781-.033203-.6289063-1.916016-5.4199218-.033203-.5625c-.59182-1.2963669-1.05368-2.2688932-2.611328-2.2480469zm.039063.8027344c.575845-.0008492.809296.1178398 1.054687.375.233117.2442966.468113.720316.734375 1.2949219l.023438.3847656a.79395824.79395824 0 0 0 .044921.2167968l1.876954 5.3125.001953.046875-.070313.0449219-.970703.3886719-3.214844.1835938c.041382-.1774847.148302-.4039474.173829-.5527344.065498-.3817834.159633-.8845.027343-1.5722656-.033282-.1745182-.126242-.3292213-.205078-.453125.024266-.1790744.054688-.2863064.054688-.6542969 0-1.1184873-.465522-2.0185622-1.0488285-2.7148438l.0898437-.203125a.79395824.79395824 0 0 0 .0625-.2265625c.0798809-.6587899.2193518-1.1463747.4062498-1.4140625.181811-.260401.396476-.4030713.958985-.4570312z"/></g></svg>

<?xml version="1.0" encoding="UTF-8" standalone="no"?>
<!-- Created with Inkscape (http://www.inkscape.org/) -->

<svg
   xmlns:dc="http://purl.org/dc/elements/1.1/"
   xmlns:cc="http://creativecommons.org/ns#"
   xmlns:rdf="http://www.w3.org/1999/02/22-rdf-syntax-ns#"
   xmlns:svg="http://www.w3.org/2000/svg"
   xmlns="http://www.w3.org/2000/svg"
   xmlns:sodipodi="http://sodipodi.sourceforge.net/DTD/sodipodi-0.dtd"
   xmlns:inkscape="http://www.inkscape.org/namespaces/inkscape"
   id="svg7384"
   height="16"
   width="16"
   version="1.1"
   inkscape:version="0.92.2 (unknown)"
   sodipodi:docname="system-users-symbolic.svg">
  <defs
     id="defs12" />
  <sodipodi:namedview
     pagecolor="#ffffff"
     bordercolor="#666666"
     borderopacity="1"
     objecttolerance="10"
     gridtolerance="10"
     guidetolerance="10"
     inkscape:pageopacity="0"
     inkscape:pageshadow="2"
     inkscape:window-width="1366"
     inkscape:window-height="716"
     id="namedview10"
     showgrid="false"
     inkscape:zoom="20.85965"
     inkscape:cx="11.506128"
     inkscape:cy="5.3171649"
     inkscape:window-x="0"
     inkscape:window-y="27"
     inkscape:window-maximized="1"
     inkscape:current-layer="svg7384" />
  <metadata
     id="metadata90">
    <rdf:RDF>
      <cc:Work
         rdf:about="">
        <dc:format>image/svg+xml</dc:format>
        <dc:type
           rdf:resource="http://purl.org/dc/dcmitype/StillImage" />
        <dc:title>Gnome Symbolic Icon Theme</dc:title>
      </cc:Work>
    </rdf:RDF>
  </metadata>
  <title
     id="title9167">Gnome Symbolic Icon Theme</title>
  <g
     id="g830">
    <path
       id="path3424"
       d="M 5.6347656 4.4492188 C 4.7428224 4.4492188 4.0397384 4.7911654 3.6875 5.109375 C 3.2970509 5.4616147 3.0078125 5.8667894 3.0078125 6.625 C 3.0078125 7.1629117 3.0527344 7.4799599 3.0527344 7.6757812 C 3.0527344 7.8948861 2.8434351 7.9192859 2.796875 8.1640625 C 2.7306057 8.5073469 2.8425846 9.2886419 3.0527344 9.6796875 C 3.1822872 9.919091 3.4561467 10.024711 3.640625 10.240234 C 3.8292822 10.459936 4.0234375 10.91254 4.0234375 11.205078 C 4.0234375 11.643885 3.533613 12.568589 2.4589844 13.103516 C 0.98733829 13.837249 0.26367188 14.173818 0.26367188 15.195312 L 11.009766 15.195312 C 11.009766 14.173818 10.286098 13.837249 8.8144531 13.103516 C 7.740421 12.567991 7.2460938 11.643288 7.2460938 11.205078 C 7.2460937 10.912541 7.4408465 10.459936 7.6289062 10.240234 C 7.8121903 10.024711 8.0872444 9.919091 8.2167969 9.6796875 C 8.4275421 9.2886418 8.5408774 8.5073468 8.4746094 8.1640625 C 8.4280422 7.9198828 8.2167969 7.8954834 8.2167969 7.6757812 C 8.2167969 7.4799601 8.2617188 7.1623146 8.2617188 6.625 C 8.2617188 5.8667893 7.9814533 5.4258202 7.6757812 5.1816406 C 7.4489155 5.0001479 7.1823545 4.961977 7.0175781 4.9375 C 7.0164081 4.93571 7.0142685 4.9347937 7.0136719 4.9335938 L 6.984375 4.8945312 L 6.9785156 4.8964844 C 6.8459779 4.7537974 6.5841316 4.5708829 6.1972656 4.4980469 C 6.0283091 4.4658079 5.8234218 4.4492188 5.6347656 4.4492188 z M 6.984375 4.8945312 L 7.0214844 4.8710938 C 7.0919327 4.8310937 7.1805671 4.8125 7.2910156 4.8125 L 7.2910156 4.6738281 C 7.1978806 4.6738281 7.1165599 4.6858625 7.0449219 4.7109375 C 7.0264175 4.6345195 6.9877626 4.5596495 6.9316406 4.4921875 L 6.8261719 4.5800781 C 6.8870639 4.6529141 6.9199219 4.735484 6.9199219 4.8125 L 6.984375 4.8945312 z M 6.1503906 5.3632812 C 6.1505242 5.363551 6.3002234 5.5680923 6.3339844 5.6132812 C 6.3352844 5.6145912 6.3365806 5.6158875 6.3378906 5.6171875 C 6.5954368 5.8465713 6.955839 5.9210346 7.2832031 5.8125 L 6.9746094 5.9140625 C 7.0031504 5.9224925 7.0769456 5.9392969 7.0722656 5.9355469 L 7.0742188 5.9355469 C 7.1620405 6.0057014 7.296875 6.1045201 7.296875 6.625 C 7.296875 7.1085452 7.2519531 7.332422 7.2519531 7.6757812 C 7.2519531 7.9922803 7.4150244 8.1847627 7.5273438 8.3457031 L 7.5273438 8.3476562 C 7.5152608 8.2850645 7.5327179 8.5354285 7.4980469 8.75 C 7.4633753 8.9645715 7.3795277 9.1997586 7.3671875 9.2226562 C 7.4501058 9.0674982 7.2821301 9.16073 6.8964844 9.6132812 L 6.8945312 9.6152344 C 6.4959412 10.081344 6.2812498 10.485445 6.28125 11.205078 C 6.28125 11.786934 6.5019426 12.214331 6.8476562 12.6875 C 7.19337 13.160669 7.7022069 13.626465 8.3847656 13.966797 C 8.6237115 14.085931 8.6686811 14.131749 8.8574219 14.230469 L 2.4160156 14.230469 C 2.6047565 14.131753 2.6497259 14.085931 2.8886719 13.966797 C 3.5721631 13.62657 4.0789969 13.15944 4.4238281 12.685547 C 4.7686594 12.211654 4.9882812 11.783439 4.9882812 11.205078 C 4.9882812 10.48646 4.7743657 10.080975 4.3730469 9.6132812 C 3.9848578 9.1597663 3.8202118 9.0689664 3.9023438 9.2226562 C 3.8902659 9.2001818 3.8078145 8.966617 3.7734375 8.7519531 C 3.7390605 8.5372892 3.7559916 8.2862652 3.7441406 8.3476562 C 3.7441432 8.3463562 3.7441432 8.34505 3.7441406 8.34375 C 3.8553019 8.183487 4.0175781 7.9911028 4.0175781 7.6757812 C 4.0175781 7.332422 3.9726562 7.109202 3.9726562 6.625 C 3.9726562 6.1121313 4.0407973 6.0906703 4.3339844 5.8261719 C 4.4674779 5.7055748 4.9893848 5.4140625 5.6347656 5.4140625 C 5.7668686 5.4140625 5.927864 5.4285665 6.015625 5.4453125 C 6.016925 5.4453151 6.0182313 5.4453151 6.0195312 5.4453125 C 6.1955765 5.4784574 6.2903524 5.5730474 6.2714844 5.5527344 L 6.2421875 5.5117188 C 6.2588295 5.5339517 6.2764249 5.5554569 6.2949219 5.5761719 C 6.3014329 5.5826819 6.3274744 5.6074212 6.3339844 5.6132812 C 6.3090541 5.5832899 6.2352231 5.4939305 6.2207031 5.4765625 L 6.1503906 5.3632812 z "
       style="fill:#bebebe;fill-opacity:1;stroke-width:1.05770326" />
    <path
       id="path3973"
       d="M 11.142578 0.8046875 C 9.6036966 0.93292757 9.1994587 1.9633513 9.0273438 3.3828125 L 8.7636719 3.9785156 A 1.6497243 1.6497243 0 0 1 8.828125 4.078125 C 9.4290269 4.649663 9.9199219 5.5442632 9.9199219 6.6230469 C 9.9199219 7.1700356 9.8698466 7.4192199 9.8535156 7.4824219 C 9.9444628 7.6485642 10.042042 7.6589791 10.083984 7.8789062 C 10.194775 8.4528315 10.122454 8.7615823 10.052734 9.1679688 C 9.983015 9.5743552 9.9074692 9.9872767 9.6542969 10.457031 C 9.6401969 10.483091 9.6367809 10.499197 9.6230469 10.523438 L 10.613281 10.654297 L 14.050781 10.457031 L 15.208984 9.9941406 L 15.736328 9.6640625 L 15.703125 9.0351562 L 13.787109 3.6152344 L 13.753906 3.0527344 C 13.162086 1.7563675 12.700226 0.7838412 11.142578 0.8046875 z M 11.181641 1.6074219 C 11.757486 1.6065727 11.990937 1.7252617 12.236328 1.9824219 C 12.469445 2.2267185 12.704441 2.7027379 12.970703 3.2773438 L 12.994141 3.6621094 A 0.79395824 0.79395824 0 0 0 13.039062 3.8789062 L 14.916016 9.1914062 L 14.917969 9.2382812 L 14.847656 9.2832031 L 13.876953 9.671875 L 10.662109 9.8554688 C 10.703491 9.6779841 10.810411 9.4515214 10.835938 9.3027344 C 10.901436 8.920951 10.995571 8.4182344 10.863281 7.7304688 C 10.829999 7.5559506 10.737039 7.4012475 10.658203 7.2773438 C 10.682469 7.0982694 10.712891 6.9910374 10.712891 6.6230469 C 10.712891 5.5045596 10.247369 4.6044847 9.6640625 3.9082031 L 9.7539062 3.7050781 A 0.79395824 0.79395824 0 0 0 9.8164062 3.4785156 C 9.8962871 2.8197257 10.035758 2.3321409 10.222656 2.0644531 C 10.404467 1.8040521 10.619132 1.6613818 11.181641 1.6074219 z "
       style="fill:#bebebe;fill-opacity:1;stroke:none;stroke-width:1.05770326" />
  </g>
</svg>
